packages/components/icon/src/assets/icons/logout.svg

<svg width="24" height="24" viewBox="0 0 24 24" fill="none" xmlns="http://www.w3.org/2000/svg">
<path fill-rule="evenodd" clip-rule="evenodd" d="M10.7249 4.3162C10.7249 3.95972 10.8518 3.65124 11.1054 3.39075C11.359 3.13025 11.6641 3 12.0206 3C12.377 3 12.6855 3.13025 12.946 3.39075C13.2065 3.65124 13.3368 3.95972 13.3368 4.3162V12.6864C13.3368 13.0428 13.2065 13.3513 12.946 13.6118C12.6855 13.8723 12.377 14.0026 12.0206 14.0026C11.6641 14.0026 11.359 13.8723 11.1054 13.6118C10.8518 13.3513 10.7249 13.0428 10.7249 12.6864V4.3162ZM7.57841 6.35219C7.97601 6.35219 8.2982 6.503 8.54499 6.80463C8.76435 7.0377 8.87404 7.32562 8.87404 7.66838C8.87404 8.06598 8.72322 8.38817 8.42159 8.63496C7.85947 9.14225 7.41731 9.7455 7.09512 10.4447C6.77292 11.144 6.61183 11.8843 6.61183 12.6658C6.61183 13.6393 6.85175 14.5407 7.33162 15.3702C7.81148 16.1997 8.46615 16.8578 9.29563 17.3445C10.1251 17.8312 11.0266 18.0746 12 18.0746C12.9734 18.0746 13.8749 17.8312 14.7044 17.3445C15.5339 16.8578 16.1919 16.1997 16.6787 15.3702C17.1654 14.5407 17.4087 13.6393 17.4087 12.6658C17.4087 11.8843 17.2476 11.1474 16.9255 10.455C16.6033 9.76264 16.1611 9.16281 15.599 8.65553C15.3111 8.38132 15.1671 8.05227 15.1671 7.66838C15.1671 7.32562 15.2768 7.0377 15.4961 6.80463C15.7429 6.51671 16.0651 6.37275 16.4627 6.37275C16.8055 6.37275 17.0934 6.48243 17.3265 6.7018C18.1628 7.44216 18.8175 8.3299 19.2905 9.36504C19.7635 10.4002 20 11.5004 20 12.6658C20 14.1191 19.6401 15.4593 18.9203 16.6864C18.2005 17.9135 17.2305 18.8869 16.0103 19.6067C14.7901 20.3265 13.4533 20.6864 12 20.6864C10.5467 20.6864 9.20995 20.3265 7.98972 19.6067C6.76949 18.8869 5.79949 17.9135 5.07969 16.6864C4.35989 15.4593 4 14.1191 4 12.6658C4 11.5004 4.23993 10.3967 4.71979 9.35476C5.19966 8.31276 5.85775 7.4216 6.69409 6.68123C6.92717 6.46187 7.22193 6.35219 7.57841 6.35219Z" fill="currentColor"/>
</svg>

<svg viewBox="0 0 24 24" fill="none" xmlns="http://www.w3.org/2000/svg"><path fill-rule="evenodd" clip-rule="evenodd" d="M10.725 4.316c0-.356.127-.665.38-.925.254-.26.56-.391.916-.391s.664.13.925.39c.26.261.39.57.39.926v8.37c0 .357-.13.665-.39.926-.26.26-.569.39-.925.39-.357 0-.662-.13-.916-.39a1.282 1.282 0 0 1-.38-.926v-8.37ZM7.578 6.352c.398 0 .72.151.967.453.22.233.329.52.329.863 0 .398-.15.72-.452.967a5.525 5.525 0 0 0-1.327 1.81 5.247 5.247 0 0 0-.483 2.22c0 .974.24 1.876.72 2.705a5.371 5.371 0 0 0 1.964 1.975 5.25 5.25 0 0 0 2.704.73 5.25 5.25 0 0 0 2.704-.73 5.452 5.452 0 0 0 1.975-1.975c.486-.83.73-1.73.73-2.704 0-.782-.161-1.519-.483-2.211a5.556 5.556 0 0 0-1.327-1.8 1.315 1.315 0 0 1-.432-.987c0-.342.11-.63.33-.863a1.21 1.21 0 0 1 .966-.432c.342 0 .63.11.863.329a7.898 7.898 0 0 1 1.965 2.663 7.849 7.849 0 0 1 .709 3.3c0 1.454-.36 2.794-1.08 4.021a8.085 8.085 0 0 1-2.91 2.92 7.75 7.75 0 0 1-4.01 1.08 7.75 7.75 0 0 1-4.01-1.08 8.084 8.084 0 0 1-2.91-2.92A7.805 7.805 0 0 1 4 12.666c0-1.166.24-2.27.72-3.311A7.99 7.99 0 0 1 6.694 6.68c.233-.22.528-.329.884-.329Z" fill="currentColor"/></svg>
